X:274
T: Der 12. Psalm: Salvum me fac domine
N: A0627
O: Europa, Mitteleuropa, Deutschland
N: Erfurter Enchiridion I. 1524 No. 13.
R: Romanze, Ballade, Lied, religioeses Lied
M: 4/1
L: 1/2
K: A
A4 | _B2A2=G2d2 | d2_B2A2z
A | _B2A2=G2=c2 | _B4A4=G4 | z4
A4 | _B2A2=G2d2 | d2_B2A2z
A | _B2A2=G2=c2 | _B4A4=G3
G | A2=F2E2D2 | =F2=G2A2z
F | =G2_B2A2B2 | =G2=F2G2z
G | d2_B2=c2d2 | =c4_B4A4 | z4

